X:1
T:Title
%%score ( 1 2 ) { 3 | 4 }
L:1/8
Q:1/4=93
M:4/4
K:Ab
V:1 treble nm="Grand Piano, Soprano"
V:2 treble 
V:3 bass nm="Choir Pad, I�ll Be There (Garey)"
V:4 bass 
V:1
 [Ec]>[DB] [CA]>[B,G] [CA]>[DB] [Ec]2 | [CE]>[CE] [DF]>[EG] [FA]>[DF] [CE]2 | %2
w: By~Anthony~Johnson~Showalter * * * * * *||
 [CA]>[DB] [Ec]>[Ec] [Ec]>[Ed] [Ee]2 | [EA]>[Ec] [EB]6 | [Ec]>[DB] [CA]>[B,G] [CA]>[DB] [Ec]2 | %5
w: |||
 [CE]>[CE] [DF]>[EG] [FA]>[DF] [CE]2 | [CA]>[DB] [Ec]>[Ec] [Ac]>[Ad] [Ae]2 | [GB]>[Gc] [EA]6 | %8
w: |||
 [Ac]>[Bd] [ce]4- [ce]>[ce] | [Bd]>[Ac] [GB]6 | [EG]>[FA] [GB]4- [GB]>[Bd] | [Ac]>[GB] A6 | %12
w: ||||
 [Ec]>[DB] [CA]>[B,G] [CA]>[DB] [Ec]2 | [CE]>[CE] [DF]>[EG] [FA]>[DF] [CE]2 | %14
w: ||
 [CA]>[DB] [Ec]>[Ec] [Ac]>[Ad] [Ae]2 | z2 A6- | A4 z4 |] %17
w: |||
V:2
 x8 | x8 | x8 | x8 | x8 | x8 | x8 | x8 | x8 | x8 | x8 | x8 | x8 | x8 | x8 | [GB]>[Gc] E>E F>F E2- | %16
 E4 z4 |] %17
V:3
 A,>A, A,>A, A,>A, A,2 | A,>A, A,>D D>A, A,2 | A,>A, A,>A, A,>B, C2 | A,>A, G,6 | %4
 G,>G, A,>A, A,>A, A,2 | A,>A, A,>D D>A, A,2 | A,>A, A,>A, A,>[K:treble]B, C2 | D>E C6 | %8
 z4 E>E E2 | z2 z z/ E/ E>E E2 | z4 E>E E2 | z2 z z/ C/ C>C C2 | A,>[K:bass]A, A,>A, A,>A, A,2 | %13
 A,>A, A,>D D>A, A,2 | A,>A, A,>A, A,>B,[K:treble] C2 | D>E C>C D>D C2- | C4 z4 |] %17
V:4
 A,,>A,, A,,>A,, A,,>A,, A,,2 | A,,>A,, D,>D, D,>D, A,,2 | A,,>A,, A,,>A,, A,,>A,, A,,2 | %3
 C,>A,, E,6 | E,>E, A,,>A,, A,,>A,, A,,2 | A,,>A,, D,>D, D,>D, A,,2 | A,,>A,, z2 F,>F, E,2 | %7
 E,>E, A,,6 | z4 A,>A, A,2 | z2 z z/ E,/ E,>E, E,2 | z4 E,>E, E,2 | %11
 z2 z z/ [A,,A,]/ [A,,A,]>[A,,A,] [A,,A,]2 | A,,>A,, A,,>A,, A,,>A,, A,,2 | %13
 A,,>A,, D,>D, D,>D, A,,2 | A,,>A,, z2 F,>F, E,2 | E,>E, A,,6- | A,,4 z4 |] %17

